X: 11593
M: C
L: 1/8
K: Bb
(d>c) |\
(cB)(BG) (F>G)(Bc) | d2(cB) c2d>c |\
(cB)(BG) (FG)(Bc) | d2(c>B) B2 :|\
(B>d)(fg) g2(f>g) | (gf)(fd) {d}c2(dc) |\
(c>B)(BG) F>GBc | d2c>B B2 :|


